dist/svgs/crypto-icons/icons/grc.svg

<?xml version="1.0" encoding="UTF-8" standalone="yes"?>
<svg xmlns="http://www.w3.org/2000/svg" xmlns:xlink="http://www.w3.org/1999/xlink" width="512px" height="512px" viewBox="0 0 384 384" version="1.1">
  <g id="surface1">
    <path style=" stroke:none;fill-rule:nonzero;fill:rgb(0%,0%,0%);fill-opacity:1;" d="M 364.257812 165.066406 L 200.125 165.066406 L 200.125 176.828125 L 365.601562 176.828125 C 365.265625 172.890625 364.851562 168.953125 364.257812 165.066406 Z M 364.257812 165.066406 "/>
    <path style=" stroke:none;fill-rule:nonzero;fill:rgb(0%,0%,0%);fill-opacity:1;" d="M 378.589844 148.191406 L 378.589844 148.363281 L 200.125 148.363281 L 200.125 157.753906 L 370.4375 157.753906 L 370.96875 160.792969 C 372.71875 171.054688 373.601562 181.445312 373.601562 191.855469 C 373.601562 276.519531 313.714844 351.316406 231.207031 369.710938 L 227.496094 370.53125 L 212.40625 288.464844 L 215.71875 287.628906 C 241.191406 281.171875 263 264.757812 276.375 242.210938 L 200.125 242.210938 L 200.125 253.824219 L 225.066406 253.824219 C 214.894531 259.273438 203.523438 262.121094 191.980469 262.105469 C 153.257812 262.105469 121.859375 230.710938 121.859375 191.980469 C 121.859375 153.25 153.257812 121.855469 191.980469 121.855469 C 206.261719 121.832031 220.203125 126.1875 231.933594 134.332031 L 374.792969 134.332031 C 350.324219 56.640625 277.730469 0.335938 191.980469 0.335938 C 86.148438 0.339844 0.339844 86.128906 0.339844 191.984375 C 0.339844 297.824219 86.148438 383.621094 191.980469 383.621094 C 297.816406 383.621094 383.621094 297.824219 383.621094 191.984375 C 383.621094 176.914062 381.882812 162.246094 378.589844 148.191406 Z M 168.441406 11.070312 C 176 10.121094 183.71875 9.636719 191.378906 9.636719 C 265.730469 9.636719 331.957031 54.101562 360.105469 122.914062 L 362.160156 127.953125 L 266.726562 127.953125 L 265.636719 126.710938 C 245.296875 103.542969 215.308594 91.191406 184.550781 93.3125 L 181.351562 93.535156 L 164.523438 11.5625 Z M 207.164062 373.402344 C 201.984375 373.84375 196.679688 374.074219 191.382812 374.082031 C 110.902344 374.082031 38.964844 320.179688 16.4375 242.996094 L 15.425781 239.53125 L 107.132812 211.667969 C 105.628906 205.292969 104.75 198.679688 104.75 191.855469 C 104.75 155.535156 127.246094 124.414062 159.011719 111.566406 L 140.023438 24.605469 C 67.074219 46.96875 16.464844 115.1875 16.464844 191.855469 C 16.464844 198.886719 16.894531 205.957031 17.71875 212.9375 L 85.289062 192.667969 L 85.289062 191.855469 C 85.289062 156.90625 102.628906 124.34375 131.058594 104.640625 C 130.703125 103.644531 130.421875 102.601562 130.421875 101.472656 C 130.421875 96.332031 134.589844 92.164062 139.730469 92.164062 C 144.871094 92.164062 149.039062 96.332031 149.039062 101.472656 C 149.039062 104.597656 147.472656 107.515625 144.867188 109.242188 C 142.257812 110.964844 138.957031 111.265625 136.082031 110.039062 C 109.089844 128.3125 92.601562 158.960938 92.601562 191.855469 C 92.601562 192.984375 92.613281 194.109375 92.65625 195.230469 L 92.757812 198.058594 L 11.65625 222.390625 L 11.054688 218.195312 C 9.796875 209.472656 9.160156 200.667969 9.15625 191.855469 C 9.15625 110.632812 63.691406 38.507812 141.765625 16.476562 L 145.492188 15.425781 L 165.945312 109.054688 C 174.183594 106.519531 182.757812 105.226562 191.378906 105.230469 C 201.269531 105.230469 210.875 106.9375 220.054688 110.164062 C 221.746094 108.140625 224.195312 106.785156 227.042969 106.785156 C 232.152344 106.785156 236.296875 110.925781 236.296875 116.035156 C 236.300781 121.148438 232.15625 125.289062 227.042969 125.289062 C 223.277344 125.289062 220.070312 123.019531 218.621094 119.792969 C 209.933594 116.507812 200.8125 114.738281 191.378906 114.738281 C 148.847656 114.738281 114.257812 149.328125 114.257812 191.855469 C 114.257812 234.382812 148.847656 268.984375 191.378906 268.984375 C 202.148438 268.984375 212.761719 266.597656 222.539062 262.289062 C 223.667969 258.453125 227.066406 255.597656 231.269531 255.597656 C 236.382812 255.597656 240.523438 259.734375 240.523438 264.847656 C 240.523438 269.960938 236.382812 274.101562 231.269531 274.101562 C 228.84375 274.101562 226.667969 273.117188 225.027344 271.585938 C 215.945312 275.40625 206.25 277.605469 196.375 278.183594 L 211.0625 373.070312 Z M 207.164062 373.402344 "/>
    <path style=" stroke:none;fill-rule:nonzero;fill:rgb(0%,0%,0%);fill-opacity:1;" d="M 109.074219 218.722656 L 97.425781 222.261719 C 107.261719 252.683594 131.292969 276.519531 161.695312 286.078125 C 163.292969 283.265625 166.207031 281.28125 169.675781 281.28125 C 174.765625 281.347656 178.859375 285.496094 178.859375 290.589844 C 178.859375 295.679688 174.765625 299.828125 169.675781 299.898438 C 165.550781 299.898438 162.167969 297.171875 160.945312 293.457031 C 127.574219 283.484375 101.125 257.585938 90.4375 224.382812 L 24.503906 244.410156 C 47.238281 316.640625 115.34375 366.773438 191.375 366.773438 C 195.144531 366.765625 198.910156 366.644531 202.628906 366.410156 L 189.003906 278.367188 C 151.660156 277.347656 120.167969 252.640625 109.074219 218.722656 Z M 214.714844 214.898438 C 212.222656 214.945312 210.226562 216.980469 210.226562 219.472656 C 210.226562 221.964844 212.222656 224 214.714844 224.046875 C 217.207031 224 219.203125 221.964844 219.203125 219.472656 C 219.203125 216.980469 217.207031 214.945312 214.714844 214.898438 Z M 191.378906 85.769531 C 221.351562 85.769531 249.90625 98.460938 270.023438 120.644531 L 351.179688 120.644531 C 323.058594 57.460938 260.921875 16.945312 191.378906 16.945312 C 185.34375 16.945312 179.269531 17.257812 173.28125 17.871094 L 187.242188 85.847656 C 188.613281 85.796875 189.992188 85.769531 191.378906 85.769531 Z M 191.378906 85.769531 "/>
    <path style=" stroke:none;fill-rule:nonzero;fill:rgb(0%,0%,0%);fill-opacity:1;" d="M 285.828125 240.230469 C 272.402344 266.359375 248.84375 285.738281 220.8125 293.820312 L 233.304688 361.710938 C 300.332031 345.199219 351.050781 289.730469 363.359375 223.128906 L 225.195312 223.128906 C 223.667969 227.480469 219.570312 230.628906 214.714844 230.628906 C 208.566406 230.628906 203.5625 225.625 203.5625 219.46875 C 203.5625 213.316406 208.566406 208.316406 214.714844 208.316406 C 219.570312 208.316406 223.667969 211.460938 225.195312 215.816406 L 364.464844 215.816406 C 365.070312 211.484375 365.539062 207.128906 365.820312 202.71875 L 245.546875 202.71875 C 244.027344 207.074219 239.921875 210.222656 235.058594 210.222656 C 228.914062 210.222656 223.910156 205.21875 223.910156 199.0625 C 223.910156 192.910156 228.914062 187.90625 235.058594 187.90625 C 239.921875 187.90625 244.027344 191.054688 245.546875 195.410156 L 366.140625 195.410156 C 366.164062 194.21875 366.292969 193.054688 366.292969 191.855469 C 366.292969 189.285156 366.113281 186.714844 366 184.140625 L 200.125 184.140625 L 200.125 234.90625 L 288.550781 234.90625 Z M 285.828125 240.230469 "/>
    <path style=" stroke:none;fill-rule:nonzero;fill:rgb(0%,0%,0%);fill-opacity:1;" d="M 239.636719 199.0625 C 239.636719 196.535156 237.585938 194.488281 235.058594 194.488281 C 232.535156 194.488281 230.484375 196.535156 230.484375 199.0625 C 230.484375 201.589844 232.535156 203.640625 235.058594 203.640625 C 237.585938 203.640625 239.636719 201.589844 239.636719 199.0625 Z M 239.636719 199.0625 "/>
    <path style=" stroke:none;fill-rule:nonzero;fill:rgb(0%,0%,0%);fill-opacity:1;" d="M 198.128906 176.828125 C 196.601562 172.472656 192.503906 169.324219 187.640625 169.324219 C 181.5 169.324219 176.492188 174.328125 176.492188 180.484375 C 176.492188 186.632812 181.496094 191.640625 187.640625 191.640625 C 192.503906 191.640625 196.597656 188.492188 198.128906 184.136719 L 200.125 184.136719 L 200.125 176.828125 Z M 187.640625 185.058594 C 185.117188 185.054688 183.074219 183.007812 183.074219 180.484375 C 183.070312 177.960938 185.117188 175.910156 187.640625 175.90625 C 190.167969 175.90625 192.21875 177.957031 192.21875 180.484375 C 192.21875 183.007812 190.167969 185.058594 187.640625 185.058594 Z M 199.042969 234.902344 C 197.515625 230.550781 193.417969 227.402344 188.558594 227.402344 C 182.410156 227.402344 177.40625 232.40625 177.40625 238.558594 C 177.40625 244.710938 182.410156 249.714844 188.558594 249.714844 C 193.417969 249.714844 197.515625 246.566406 199.042969 242.210938 L 200.125 242.210938 L 200.125 234.902344 Z M 188.558594 243.132812 C 186.03125 243.132812 183.980469 241.085938 183.980469 238.558594 C 183.980469 236.03125 186.03125 233.984375 188.558594 233.984375 C 191.078125 233.984375 193.125 236.03125 193.125 238.558594 C 193.125 241.085938 191.078125 243.132812 188.558594 243.132812 Z M 176.445312 157.753906 C 174.921875 153.402344 170.820312 150.253906 165.964844 150.253906 C 159.808594 150.253906 154.816406 155.257812 154.816406 161.410156 C 154.816406 167.5625 159.8125 172.566406 165.964844 172.566406 C 170.820312 172.566406 174.921875 169.421875 176.445312 165.066406 L 200.125 165.066406 L 200.125 157.753906 Z M 165.964844 165.984375 C 164.75 165.984375 163.589844 165.503906 162.734375 164.644531 C 161.875 163.785156 161.394531 162.621094 161.398438 161.410156 C 161.394531 160.199219 161.875 159.035156 162.734375 158.175781 C 163.589844 157.316406 164.75 156.835938 165.964844 156.835938 C 168.488281 156.839844 170.53125 158.886719 170.535156 161.410156 C 170.53125 163.933594 168.488281 165.980469 165.964844 165.984375 Z M 165.964844 165.984375 "/>
  </g>
</svg>

<svg xmlns="http://www.w3.org/2000/svg" viewBox="0 0 384 384"><path d="M364.258 165.066H200.125v11.762h165.477c-.336-3.937-.75-7.875-1.344-11.762zm0 0"/><path d="M378.59 148.191v.172H200.125v9.39h170.313l.53 3.04a184.774 184.774 0 012.634 31.062c0 84.665-59.887 159.461-142.395 177.856l-3.71.82-15.09-82.066 3.312-.836c25.472-6.457 47.281-22.871 60.656-45.418h-76.25v11.613h24.941a69.877 69.877 0 01-33.086 8.281c-38.722 0-70.12-31.394-70.12-70.125 0-38.73 31.398-70.125 70.12-70.125a69.85 69.85 0 0139.954 12.477h142.859C350.324 56.641 277.73.336 191.98.336 86.148.34.34 86.129.34 191.984c0 105.84 85.808 191.637 191.64 191.637 105.836 0 191.641-85.797 191.641-191.637 0-15.07-1.738-29.738-5.031-43.793zM168.44 11.071a184.786 184.786 0 0122.938-1.434c74.351 0 140.578 44.465 168.726 113.277l2.055 5.04h-95.433l-1.09-1.243a98.853 98.853 0 00-81.086-33.398l-3.2.222-16.828-81.972zm38.723 362.331c-5.18.442-10.484.672-15.781.68-80.48 0-152.418-53.902-174.946-131.086l-1.011-3.465 91.707-27.863c-1.504-6.375-2.383-12.988-2.383-19.813 0-36.32 22.496-67.44 54.262-80.289l-18.989-86.96C67.074 46.968 16.465 115.187 16.465 191.855c0 7.03.43 14.101 1.254 21.082l67.57-20.27v-.813c0-34.949 17.34-67.511 45.77-87.214-.356-.996-.637-2.04-.637-3.168a9.31 9.31 0 0118.617 0 9.321 9.321 0 01-4.172 7.77 9.315 9.315 0 01-8.785.796c-26.992 18.273-43.48 48.922-43.48 81.816 0 1.13.011 2.254.054 3.375l.102 2.829-81.102 24.332-.601-4.196a185.153 185.153 0 01-1.899-26.34c0-81.222 54.535-153.347 132.61-175.378l3.726-1.051 20.453 93.629a86.353 86.353 0 0125.434-3.825c9.89 0 19.496 1.707 28.676 4.934 1.691-2.023 4.14-3.379 6.988-3.379 5.11 0 9.254 4.14 9.254 9.25.004 5.113-4.14 9.254-9.254 9.254-3.766 0-6.973-2.27-8.422-5.496-8.687-3.285-17.809-5.055-27.242-5.055-42.531 0-77.121 34.59-77.121 77.117 0 42.528 34.59 77.13 77.12 77.13 10.77 0 21.384-2.387 31.161-6.696 1.129-3.836 4.527-6.691 8.73-6.691a9.247 9.247 0 019.254 9.25 9.25 9.25 0 01-9.253 9.254c-2.426 0-4.602-.985-6.243-2.516-9.082 3.82-18.777 6.02-28.652 6.598l14.688 94.886zm0 0"/><path d="M109.074 218.723l-11.648 3.539c9.836 30.422 33.867 54.258 64.27 63.816 1.597-2.812 4.511-4.797 7.98-4.797 5.09.067 9.183 4.215 9.183 9.309 0 5.09-4.093 9.238-9.183 9.308-4.125 0-7.508-2.726-8.73-6.441-33.372-9.973-59.821-35.871-70.508-69.074L24.504 244.41c22.734 72.23 90.84 122.363 166.871 122.363 3.77-.007 7.535-.128 11.254-.363l-13.625-88.043c-37.344-1.02-68.836-25.726-79.93-59.644zm105.64-3.825a4.575 4.575 0 000 9.149 4.575 4.575 0 000-9.149zM191.38 85.77c29.973 0 58.527 12.69 78.644 34.875h81.157c-28.121-63.184-90.258-103.7-159.801-103.7-6.035 0-12.11.313-18.098.926l13.961 67.977c1.371-.051 2.75-.078 4.137-.078zm0 0"/><path d="M285.828 240.23c-13.426 26.13-36.984 45.508-65.015 53.59l12.492 67.89c67.027-16.51 117.746-71.98 130.054-138.581H225.195c-1.527 4.351-5.625 7.5-10.48 7.5-6.149 0-11.153-5.004-11.153-11.16 0-6.153 5.004-11.153 11.153-11.153 4.855 0 8.953 3.145 10.48 7.5h139.27a174.913 174.913 0 001.355-13.097H245.547c-1.52 4.355-5.625 7.504-10.488 7.504-6.145 0-11.149-5.004-11.149-11.16 0-6.153 5.004-11.157 11.149-11.157 4.863 0 8.968 3.149 10.488 7.504H366.14c.023-1.191.152-2.355.152-3.555 0-2.57-.18-5.14-.293-7.714H200.125v50.765h88.426zm0 0"/><path d="M239.637 199.063a4.576 4.576 0 10-9.153.003 4.576 4.576 0 009.153-.004zm-41.508-22.235c-1.527-4.355-5.625-7.504-10.488-7.504-6.141 0-11.149 5.004-11.149 11.16 0 6.149 5.004 11.157 11.149 11.157 4.863 0 8.957-3.149 10.488-7.504h1.996v-7.309zm-10.488 8.23a4.574 4.574 0 01-4.567-4.574 4.575 4.575 0 014.567-4.578 4.58 4.58 0 014.578 4.578 4.579 4.579 0 01-4.578 4.575zm11.402 49.844c-1.527-4.351-5.625-7.5-10.484-7.5-6.149 0-11.153 5.004-11.153 11.157 0 6.152 5.004 11.156 11.153 11.156 4.859 0 8.957-3.149 10.484-7.504h1.082v-7.309zm-10.484 8.23a4.576 4.576 0 01-4.579-4.573 4.571 4.571 0 119.145 0 4.571 4.571 0 01-4.566 4.574zm-12.114-85.378c-1.523-4.352-5.625-7.5-10.48-7.5-6.156 0-11.149 5.004-11.149 11.156 0 6.153 4.996 11.156 11.149 11.156 4.855 0 8.957-3.144 10.48-7.5h23.68v-7.312zm-10.48 8.23a4.552 4.552 0 01-3.23-1.34 4.554 4.554 0 01-1.337-3.234 4.554 4.554 0 011.336-3.234 4.552 4.552 0 013.23-1.34 4.58 4.58 0 014.571 4.574 4.58 4.58 0 01-4.57 4.574zm0 0"/></svg>
